X: 1
T: The Starry Nights of Shetland
M: 3/4
L: 1/4
R: waltz
K: D
A|f2d|A(BA)|G2G|c2B|A2c|e2A|(f3|f2)A|
f2d|A(BA)|G2G|c2B|Acd/e/|f(Bc)|d3|d2:|
e/f/|gBg|gBg|fAf|fAf|fdf|agf|(e3|e2)A|
f2d|A(BA)|G2G|c2B|Acd/e/|f(Bc)|d3|d2:|
